LPSOR/Assets/Models/CharacterModelSprites/Default Body/Legs/RUpperLeg.svg

<?xml version="1.0" encoding="UTF-8" standalone="no"?>
<svg
   xmlns:dc="http://purl.org/dc/elements/1.1/"
   xmlns:cc="http://creativecommons.org/ns#"
   xmlns:rdf="http://www.w3.org/1999/02/22-rdf-syntax-ns#"
   xmlns:svg="http://www.w3.org/2000/svg"
   xmlns="http://www.w3.org/2000/svg"
   xmlns:sodipodi="http://sodipodi.sourceforge.net/DTD/sodipodi-0.dtd"
   xmlns:inkscape="http://www.inkscape.org/namespaces/inkscape"
   height="23.1"
   width="14.960606"
   version="1.1"
   id="svg8"
   sodipodi:docname="RUpperLeg.svg"
   inkscape:version="0.92.4 (5da689c313, 2019-01-14)">
  <metadata
     id="metadata14">
    <rdf:RDF>
      <cc:Work
         rdf:about="">
        <dc:format>image/svg+xml</dc:format>
        <dc:type
           rdf:resource="http://purl.org/dc/dcmitype/StillImage" />
      </cc:Work>
    </rdf:RDF>
  </metadata>
  <defs
     id="defs12" />
  <sodipodi:namedview
     pagecolor="#ffffff"
     bordercolor="#666666"
     borderopacity="1"
     objecttolerance="10"
     gridtolerance="10"
     guidetolerance="10"
     inkscape:pageopacity="0"
     inkscape:pageshadow="2"
     inkscape:window-width="1920"
     inkscape:window-height="1007"
     id="namedview10"
     showgrid="false"
     inkscape:zoom="5.108225"
     inkscape:cx="-83.59421"
     inkscape:cy="11.499999"
     inkscape:window-x="0"
     inkscape:window-y="0"
     inkscape:window-maximized="1"
     inkscape:current-layer="g6" />
  <g
     transform="matrix(2,0,0,2,7.4333333,11.5)"
     id="g6">
    <path
       d="M -2.6,4.8 Q -3.65,3.7 -3.65,2.6 -3.55,-0.15 -3.7,-2.2 -3.85,-3.45 -2.65,-4.65 L -2.6,4.8"
       id="path2"
       style="fill:#919191;fill-opacity:1;fill-rule:evenodd;stroke:none"
       inkscape:connector-curvature="0" />
    <path
       d="m -2.65,-4.65 q 1.1,-1.1 2.55,-1.1 1.85,0 2.9,1.45 0.65,0.95 0.8,2.1 0.3,3.15 0.05,4.8 -0.2,1.1 -0.85,1.9 -1,1.3 -2.85,1.3 -1.45,0 -2.55,-1 l -0.05,-9.45"
       id="path4"
       style="fill:#bfbfbf;fill-opacity:1;fill-rule:evenodd;stroke:none"
       inkscape:connector-curvature="0" />
  </g>
</svg>

<?xml version="1.0" encoding="UTF-8" standalone="no"?>
<svg
   xmlns:dc="http://purl.org/dc/elements/1.1/"
   xmlns:cc="http://creativecommons.org/ns#"
   xmlns:rdf="http://www.w3.org/1999/02/22-rdf-syntax-ns#"
   xmlns:svg="http://www.w3.org/2000/svg"
   xmlns="http://www.w3.org/2000/svg"
   xmlns:sodipodi="http://sodipodi.sourceforge.net/DTD/sodipodi-0.dtd"
   xmlns:inkscape="http://www.inkscape.org/namespaces/inkscape"
   height="46.2px"
   width="29.8px"
   version="1.1"
   id="svg8"
   sodipodi:docname="RUpperLeg.svg"
   inkscape:version="0.92.4 (5da689c313, 2019-01-14)">
  <metadata
     id="metadata14">
    <rdf:RDF>
      <cc:Work
         rdf:about="">
        <dc:format>image/svg+xml</dc:format>
        <dc:type
           rdf:resource="http://purl.org/dc/dcmitype/StillImage" />
      </cc:Work>
    </rdf:RDF>
  </metadata>
  <defs
     id="defs12" />
  <sodipodi:namedview
     pagecolor="#ffffff"
     bordercolor="#666666"
     borderopacity="1"
     objecttolerance="10"
     gridtolerance="10"
     guidetolerance="10"
     inkscape:pageopacity="0"
     inkscape:pageshadow="2"
     inkscape:window-width="1920"
     inkscape:window-height="1007"
     id="namedview10"
     showgrid="false"
     inkscape:zoom="5.108225"
     inkscape:cx="-42.164831"
     inkscape:cy="23.1"
     inkscape:window-x="0"
     inkscape:window-y="0"
     inkscape:window-maximized="1"
     inkscape:current-layer="g6" />
  <g
     transform="matrix(4.0, 0.0, 0.0, 4.0, 14.8, 23.0)"
     id="g6">
    <path
       d="M-2.6 4.8 Q-3.65 3.7 -3.65 2.6 -3.55 -0.15 -3.7 -2.2 -3.85 -3.45 -2.65 -4.65 L-2.6 4.8"
       fill="#de6dc8"
       fill-rule="evenodd"
       stroke="none"
       id="path2"
       style="fill:#919191;fill-opacity:1" />
    <path
       d="M-2.65 -4.65 Q-1.55 -5.75 -0.1 -5.75 1.75 -5.75 2.8 -4.3 3.45 -3.35 3.6 -2.2 3.9 0.95 3.65 2.6 3.45 3.7 2.8 4.5 1.8 5.8 -0.05 5.8 -1.5 5.8 -2.6 4.8 L-2.65 -4.65"
       fill="#eba5dd"
       fill-rule="evenodd"
       stroke="none"
       id="path4"
       style="fill:#bfbfbf;fill-opacity:1" />
  </g>
</svg>
